X: 163
T:Lady in the Boat
% Nottingham Music Database
S:EF
M:6/8
K:D
P:A
A|"D"dfA d2A|"D"dfA d2f|"D"a2f "Bm"fed|"Em"efe "A7"ecA|
"D"dfA d2A|"D"dfA d2f|"D"a2f "A7"efe|"D"d3 d2:|
P:B
d/2e/2|"D"f3 "A7/e"gfg|"D/f+"a3 f2g|"D"agf "Bm"fed|"Em"efe "A7"ecA|
"D"f3 "A7/e"gfg|"D/f+"a3 f2g|"D"agf "A7"gec|"D"edd d2:|<end>
<start>
